svgs/ebay.svg

<svg width="192" height="192" viewBox="0 0 192 192" fill="none" xmlns="http://www.w3.org/2000/svg">
<path d="M105 22L105 64" stroke="black" stroke-width="12" stroke-linecap="round"/>
<path d="M101 108L126 150" stroke="black" stroke-width="12" stroke-linecap="round"/>
<path d="M151 108L126 150" stroke="black" stroke-width="12" stroke-linecap="round"/>
<path d="M126 150L114.095 170" stroke="black" stroke-width="12" stroke-linecap="round"/>
<circle cx="127" cy="64" r="22" stroke="black" stroke-width="12"/>
<circle cx="63" cy="128" r="22" stroke="black" stroke-width="12"/>
<path d="M63 86C50.8497 86 41 76.1503 41 64M41 64C41 51.8497 50.8497 42 63 42C75.1503 42 85 51.8497 85 64H63H41Z" stroke="black" stroke-width="12" stroke-linecap="round" stroke-linejoin="round"/>
<path d="M85 150V127" stroke="black" stroke-width="12" stroke-linecap="round"/>
<path d="M62 85.9999C67.4006 85.9999 72.507 84.7407 77.0419 82.5" stroke="black" stroke-width="12" stroke-linecap="round"/>
</svg>

<svg width="192" height="192" viewBox="0 0 192 192" fill="none" xmlns="http://www.w3.org/2000/svg"><path d="M105 22v42M101 108l25 42M151 108l-25 42M126 150l-11.905 20" stroke="#000" stroke-width="12" stroke-linecap="round"/><circle cx="127" cy="64" r="22" stroke="#000" stroke-width="12"/><circle cx="63" cy="128" r="22" stroke="#000" stroke-width="12"/><path d="M63 86c-12.15 0-22-9.85-22-22m0 0c0-12.15 9.85-22 22-22s22 9.85 22 22H41Z" stroke="#000" stroke-width="12" stroke-linecap="round" stroke-linejoin="round"/><path d="M85 150v-23M62 86c5.4 0 10.507-1.26 15.042-3.5" stroke="#000" stroke-width="12" stroke-linecap="round"/></svg>
